components/assets/ANTv1.svg

<svg width="55" height="55" viewBox="0 0 55 55" fill="none" xmlns="http://www.w3.org/2000/svg">
<ellipse cx="27.0528" cy="27.0758" rx="27.0528" ry="27.0758" fill="white"/>
<path d="M48.1941 25.2843C48.3818 21.3832 45.6594 18.7952 42.5871 17.0185L40.5901 28.7605C41.9726 28.6833 42.6485 29.2086 42.8943 29.4558C43.2016 29.7648 43.9696 30.6918 43.0479 32.1596C44.9681 31.8506 47.9674 29.9965 48.1941 25.2843Z" fill="url(#paint0_linear)"/>
<path fill-rule="evenodd" clip-rule="evenodd" d="M21.9981 11.6136L19.6171 9.21882C23.2014 8.78106 32.6591 9.34242 41.8146 15.0899C41.9682 15.7079 41.8146 16.6349 41.8146 16.6349L42.5827 17.0211C43.2484 17.9739 44.38 20.6828 43.5812 23.8964C42.7824 27.11 41.405 28.4799 40.8161 28.7632C39.5872 28.7632 37.498 29.4739 36.8221 32.6257C36.1462 35.7775 34.8507 36.4625 34.2874 36.411L20.7692 36.5655L11.8594 31.3125L10.5537 20.4201L13.0884 17.0211L17.6201 13.3131L20.846 11.9998L21.9981 11.6136ZM37.9638 16.1131C37.3677 16.7346 36.8103 17.0327 36.6512 17.1136C33.1704 16.3725 31.9164 14.5702 31.9164 14.5702C35.1996 14.55 38.163 15.3315 40.3311 16.6537C40.3311 16.6537 39.1575 16.2731 37.9638 16.1131Z" fill="url(#paint1_linear)"/>
<path fill-rule="evenodd" clip-rule="evenodd" d="M36.8075 32.6267C34.4138 33.7987 31.5758 34.4772 28.5329 34.4772C19.9796 34.4772 13.0458 29.1163 13.0458 22.5034C13.0458 17.618 16.83 13.4159 22.2559 11.5539C11.9375 12.1462 3.64551 20.4161 3.64551 30.6204C3.64551 42.3968 14.167 52.1272 27.146 52.1272C36.8377 52.1272 44.905 46.521 49.1233 39.0204C43.3193 40.3226 36.4488 37.8469 36.8075 32.6267Z" fill="url(#paint2_linear)"/>
<defs>
<linearGradient id="paint0_linear" x1="44.4292" y1="21.301" x2="45.4579" y2="34.5661" gradientUnits="userSpaceOnUse">
<stop stop-color="#01E8F7"/>
<stop offset="1" stop-color="#00C2FF"/>
</linearGradient>
<linearGradient id="paint1_linear" x1="21.3289" y1="12.0478" x2="35.2823" y2="34.1747" gradientUnits="userSpaceOnUse">
<stop stop-color="#01E8F7"/>
<stop offset="1" stop-color="#00B3EC"/>
</linearGradient>
<linearGradient id="paint2_linear" x1="26.5789" y1="23.0297" x2="27.8214" y2="58.7464" gradientUnits="userSpaceOnUse">
<stop stop-color="#01E8F7"/>
<stop offset="1" stop-color="#00C2FF"/>
</linearGradient>
</defs>
</svg>

<svg width="55" height="55" fill="none" xmlns="http://www.w3.org/2000/svg"><ellipse cx="27.053" cy="27.076" rx="27.053" ry="27.076" fill="#fff"/><path d="M48.194 25.284c.188-3.9-2.535-6.489-5.607-8.265L40.59 28.76c1.383-.078 2.058.448 2.304.695.308.309 1.076 1.236.154 2.704 1.92-.31 4.92-2.163 5.146-6.876z" fill="url(#paint0_linear)"/><path fill-rule="evenodd" clip-rule="evenodd" d="M21.998 11.614l-2.38-2.395c3.583-.438 13.041.123 22.197 5.87.153.619 0 1.546 0 1.546l.768.386c.665.953 1.797 3.662.998 6.875-.799 3.214-2.176 4.584-2.765 4.867-1.229 0-3.318.71-3.994 3.863-.676 3.152-1.971 3.837-2.535 3.785l-13.518.154-8.91-5.252-1.305-10.893 2.534-3.399 4.532-3.708L20.846 12l1.152-.386zm15.966 4.5a5.021 5.021 0 01-1.313 1c-3.48-.742-4.735-2.544-4.735-2.544 3.284-.02 6.247.761 8.415 2.084 0 0-1.174-.38-2.367-.54z" fill="url(#paint1_linear)"/><path fill-rule="evenodd" clip-rule="evenodd" d="M36.807 32.627c-2.393 1.172-5.231 1.85-8.274 1.85-8.553 0-15.487-5.36-15.487-11.974 0-4.885 3.784-9.087 9.21-10.95-10.319.593-18.61 8.863-18.61 19.067 0 11.777 10.521 21.507 23.5 21.507 9.692 0 17.759-5.606 21.977-13.107-5.804 1.303-12.674-1.173-12.316-6.393z" fill="url(#paint2_linear)"/><defs><linearGradient id="paint0_linear" x1="44.429" y1="21.301" x2="45.458" y2="34.566" gradientUnits="userSpaceOnUse"><stop stop-color="#01E8F7"/><stop offset="1" stop-color="#00C2FF"/></linearGradient><linearGradient id="paint1_linear" x1="21.329" y1="12.048" x2="35.282" y2="34.175" gradientUnits="userSpaceOnUse"><stop stop-color="#01E8F7"/><stop offset="1" stop-color="#00B3EC"/></linearGradient><linearGradient id="paint2_linear" x1="26.579" y1="23.03" x2="27.821" y2="58.746" gradientUnits="userSpaceOnUse"><stop stop-color="#01E8F7"/><stop offset="1" stop-color="#00C2FF"/></linearGradient></defs></svg>
